;Generated by Cura LulzBot Edition GCodeWriter Version: 3.6.20
;FLAVOR:Marlin
;TIME:4707
;Filament used: 1.65555m
;Layer height: 0.25
;Generated with Cura_SteamEngine 3.6.20
M82 ;absolute extrusion mode
;This G-Code has been generated specifically for the LulzBot Mini 2 with SE 0.5mm Tool Head
M73 P0                  ; clear GLCD progress bar
M75 					; Start GLCD Print Timer
G26 					; clear potential 'probe fail' condition
M107 					; disable fans
M420 S0                 ; disable leveling matrix
G90 					; absolute positioning
M82 					; set extruder to absolute mode
G92 E0 					; set extruder position to 0
M140 S60.0 ; start bed heating up
G28 					; home all axes
G0 X0 Y187 Z156 F200 			; move away from endstops
M117 Mini 2 Wiping...			; progress indicator message on LCD
M109 R140 	; soften filament before retraction
G1 E-15 F75 				; retract filament
M109 R140 	; wait for extruder to reach wiping temp
G1 X45 Y176 F11520 			; move above wiper pad
G1 Z0 F1200 				; push nozzle into wiper
G1 X45 Y178 Z-.5 F4000		; wiping
G1 X55 Y176 Z-.5 F4000		; wiping
G1 X45 Y177 Z0 F4000		; wiping
G1 X55 Y176 F4000		; wiping
G1 X45 Y178 F4000		; wiping
G1 X55 Y176 F4000		; wiping
G1 X45 Y178 F4000		; wiping
G1 X55 Y176 F4000		; wiping
G1 X60 Y178 F4000		; wiping
G1 X80 Y176 F4000		; wiping
G1 X60 Y178 F4000		; wiping
G1 X80 Y176 F4000		; wiping
G1 X60 Y178 F4000		; wiping
G1 X90 Y176 F4000		; wiping
G1 X80 Y178 F4000		; wiping
G1 X100 Y176 F4000		; wiping
G1 X80 Y178 F4000		; wiping
G1 X100 Y176 F4000		; wiping
G1 X80 Y178 F4000		; wiping
G1 X100 Y176 F4000		; wiping
G1 X110 Y178 F4000		; wiping
G1 X100 Y176 F4000		; wiping
G1 X110 Y178 F4000		; wiping
G1 X100 Y176 F4000		; wiping
G1 X110 Y178 F4000		; wiping
G1 X115 Y176 Z-0.5 F1000	; wiping
G1 Z10					; raise extruder
G28 X0 Y0				; home X and Y
M109 R140	; wait for extruder to reach probe temp
M204 S300				; set probing acceleration
G29					; start auto-leveling sequence
M420 S1                     ; enable leveling matrix
M425 Z			     		; use measured Z backlash for compensation
M425 Z F0		     		; turn off measured Z backlash compensation. (if activated in the quality settings, this command will automatically be ignored)
M204 S2000				; restore standard acceleration
G1 X5 Y15 Z10 F5000			; move up off last probe point
G4 S1					; pause
M400					; wait for moves to finish
M117 Heating...				; progress indicator message on LCD
M109 R210 ; wait for extruder to reach initial printing temp
M190 R60.0 ; wait for bed to reach printing temp
G1 Z2 E0 F75				; prime tiny bit of filment into the nozzle
M117 Mini 2 Printing...		; progress indicator message on LCD

M221 S100 T0
G92 E0
G1 F600 E-1.75
;LAYER_COUNT:96
;LAYER:0
M107
G0 F2625 X35.487 Y48.844 Z0.425
;TYPE:SKIRT
G1 F600 E0
G1 F900 X35.781 Y48.664 E0.01148
G1 X36.281 Y48.393 E0.03043
G1 X36.883 Y48.141 E0.05217
G1 X37.49 Y47.956 E0.0733
G1 X37.987 Y47.846 E0.09026
G1 X38.307 Y47.818 E0.10096
G1 X39.933 Y47.753 E0.15517
G1 X40.063 Y47.75 E0.1595
G1 X122.806 Y47.757 E2.9157
G1 X123.129 Y47.773 E2.92647
G1 X124.01 Y47.861 E2.95596
G1 X124.511 Y47.951 E2.97292
G1 X124.852 Y48.061 E2.98485
G1 X125.563 Y48.334 E3.01022
G1 X126.178 Y48.648 E3.03322
G1 X126.638 Y48.949 E3.05153
G1 X127.041 Y49.261 E3.06851
G1 X127.227 Y49.444 E3.0772
G1 X127.846 Y50.103 E3.10732
G1 X128.165 Y50.5 E3.12428
G1 X128.331 Y50.773 E3.13493
G1 X128.598 Y51.263 E3.15352
G1 X128.85 Y51.86 E3.1751
G1 X129.041 Y52.479 E3.19668
G1 X129.152 Y52.976 E3.21364
G1 X129.182 Y53.307 E3.22471
G1 X129.247 Y54.933 E3.27892
G1 X129.25 Y55.063 E3.28325
G1 X129.243 Y107.806 E5.04014
G1 X129.22 Y108.191 E5.05299
G1 X129.103 Y109.171 E5.08586
G1 X129.003 Y109.671 E5.10285
G1 X128.845 Y110.108 E5.11833
G1 X128.46 Y110.973 E5.14986
G1 X128.217 Y111.42 E5.16681
G1 X128.013 Y111.701 E5.17838
G1 X127.64 Y112.16 E5.19808
G1 X127.185 Y112.618 E5.21959
G1 X126.73 Y112.993 E5.23923
G1 X126.196 Y113.351 E5.26064
G1 X125.678 Y113.628 E5.28021
G1 X125.071 Y113.877 E5.30206
G1 X124.489 Y114.05 E5.32229
G1 X123.991 Y114.157 E5.33925
G1 X123.693 Y114.182 E5.34922
G1 X122.067 Y114.247 E5.40342
G1 X121.937 Y114.25 E5.40775
G1 X39.194 Y114.243 E8.16395
G1 X38.871 Y114.227 E8.17472
G1 X37.99 Y114.139 E8.20422
G1 X37.489 Y114.049 E8.22117
G1 X37.148 Y113.939 E8.23311
G1 X36.437 Y113.666 E8.25848
G1 X35.813 Y113.345 E8.28185
G1 X35.346 Y113.037 E8.30049
G1 X34.763 Y112.546 E8.32588
G1 X34.143 Y111.884 E8.35609
G1 X33.825 Y111.486 E8.37306
G1 X33.65 Y111.197 E8.38431
G1 X33.374 Y110.682 E8.40378
G1 X33.11 Y110.025 E8.42736
G1 X32.926 Y109.369 E8.45006
G1 X32.827 Y108.869 E8.46703
G1 X32.805 Y108.494 E8.47955
G1 X32.751 Y54.704 E10.27131
G1 X32.756 Y54.523 E10.27734
G1 X32.827 Y53.226 E10.32061
G1 X32.895 Y52.721 E10.33759
G1 X33.033 Y52.252 E10.35387
G1 X33.353 Y51.408 E10.38394
G1 X33.674 Y50.778 E10.40749
G1 X33.931 Y50.386 E10.4231
G1 X34.41 Y49.812 E10.44801
G1 X35.091 Y49.165 E10.4793
G1 X35.487 Y48.844 E10.49628
G1 F600 E8.74628
;MESH:
G0 F2625 X36.896 Y51.007
G0 X37.479 Y51.715
G0 X37.76 Y52.139
;TYPE:WALL-INNER
G1 F600 E10.49628
G1 F900 X37.43 Y52.391 E10.51011
G1 X37.75 Y52.127 E10.5103
G1 X37.832 Y52.084 E10.51336
G1 X37.76 Y52.139 E10.51337
G0 F2625 X38.147 Y51.937
G1 F900 X37.958 Y52.016 E10.52019
G1 X38.139 Y51.92 E10.5203
G1 X38.325 Y51.863 E10.52676
G1 X38.147 Y51.937 E10.52684
G0 F2625 X37.212 Y52.801
G0 X37.138 Y52.76
G1 F900 X37.081 Y52.834 E10.52995
G1 X37.125 Y52.752 E10.53002
G1 X37.391 Y52.43 E10.54391
G1 X37.138 Y52.76 E10.54406
G0 F2625 X36.941 Y53.139
G1 F900 X36.864 Y53.324 E10.55074
G1 X36.922 Y53.132 E10.55087
G1 X37.019 Y52.95 E10.55772
G1 X36.941 Y53.139 E10.55783
G0 F2625 X36.969 Y53.148
G0 X36.845 Y60.745
G0 X36.755 Y60.745
G1 F900 X36.967 Y60.745 E10.56489
G1 X36.968 Y101.255 E11.91429
G1 X36.755 Y101.255 E11.92139
G1 X36.755 Y107.956 E12.1446
G1 X36.755 Y108.048 E12.14463
G1 X36.806 Y108.441 E12.15783
G1 X36.817 Y108.522 E12.16055
G1 X36.793 Y108.444
G1 X36.755 Y108.048 E12.16989
G1 X36.745 Y107.956 E12.16992
G1 X36.745 Y101.255 E12.17438
G1 X36.745 Y60.745 E12.77487
G1 X36.746 Y54.03 E12.99855
G1 X36.753 Y53.953 E13.00112
G1 X36.794 Y53.556 E13.01442
G1 X36.817 Y53.48 E13.01706
G1 X36.807 Y53.557 E13.01706
G1 X36.755 Y53.952 E13.01726
G1 X36.755 Y54.03 E13.01731
G1 X36.755 Y60.745 E13.02156
G0 F2625 X36.845 Y60.745
G0 X36.937 Y108.854
G1 F900 X37.016 Y109.043 E13.02838
G1 X36.92 Y108.861 E13.0285
G1 X36.862 Y108.672 E13.03106
G1 X36.937 Y108.854 E13.03115
G0 F2625 X37.139 Y109.24
G1 F900 X37.384 Y109.561 E13.0446
G1 X37.127 Y109.25 E13.04479
G1 X37.084 Y109.168 E13.04784
G1 X37.139 Y109.24 E13.04786
G0 F2625 X37.76 Y109.861
G1 F900 X37.832 Y109.916 E13.05087
G1 X37.75 Y109.873 E13.05095
G1 X37.43 Y109.609 E13.06477
G1 X37.76 Y109.861 E13.065
G0 F2625 X38.146 Y110.062
G1 F900 X38.328 Y110.138 E13.07157
G1 X38.139 Y110.08 E13.07169
G1 X37.957 Y109.984 E13.07853
G1 X38.146 Y110.062 E13.07864
G0 F2625 X118.255 Y110.155
G0 X118.255 Y110.245
G1 F900 X122.956 Y110.245 E13.23523
G1 X123.048 Y110.245 E13.23526
G1 X123.441 Y110.194 E13.24846
G1 X123.522 Y110.183 E13.25118
G1 X123.444 Y110.207
G1 X123.048 Y110.245 E13.26052
G1 X122.956 Y110.255 E13.26055
G1 X118.255 Y110.255 E13.26368
G1 X97.745 Y110.255 E13.94688
G1 X64.255 Y110.255 E15.06244
G1 X43.745 Y110.255 E15.74564
G1 X39.044 Y110.255 E15.90223
G1 X38.953 Y110.246 E15.90528
G1 X38.556 Y110.207 E15.91856
G1 X38.478 Y110.183 E15.92128
G1 X38.557 Y110.193 E15.92129
G1 X38.952 Y110.245 E15.9215
G1 X39.044 Y110.245 E15.92155
G1 X43.745 Y110.245 E15.92468
G1 X43.745 Y110.033 E15.93175
G1 X64.255 Y110.033 E16.23508
G1 X64.255 Y110.245 E16.24215
G1 X97.745 Y110.245 E16.26446
G1 X97.745 Y110.033 E16.27152
G1 X118.255 Y110.032 E16.57554
G1 X118.255 Y110.245 E16.58264
G0 F2625 X118.255 Y110.155
G0 X123.854 Y110.063
G1 F900 X124.043 Y109.984 E16.58946
G1 X123.861 Y110.08 E16.58958
G1 X123.672 Y110.138 E16.59214
G1 X123.854 Y110.063 E16.59223
G0 F2625 X124.25 Y109.873
G1 F900 X124.168 Y109.916 E16.59531
G1 X124.24 Y109.861 E16.59533
G1 X124.57 Y109.609 E16.60913
G1 X124.25 Y109.873 E16.60932
G0 F2625 X124.873 Y109.25
G1 F900 X124.616 Y109.561 E16.62276
G1 X124.86 Y109.241 E16.62295
G1 X124.916 Y109.168 E16.626
G1 X124.873 Y109.25
G0 F2625 X125.08 Y108.861
G1 F900 X124.984 Y109.043 E16.63286
G1 X125.062 Y108.854 E16.63297
G1 X125.138 Y108.672 E16.63952
G1 X125.08 Y108.861 E16.63965
G0 F2625 X125.155 Y101.255
G0 X125.245 Y101.255
G1 F900 X125.033 Y101.255 E16.64671
G1 X125.033 Y60.745 E17.99611
G1 X125.245 Y60.745 E18.00317
G1 X125.245 Y54.044 E18.22638
G1 X125.245 Y53.947 E18.22642
G1 X125.193 Y53.559 E18.23946
G1 X125.181 Y53.471 E18.24241
G1 X125.207 Y53.556
G1 X125.245 Y53.947 E18.25161
G1 X125.255 Y54.044 E18.25164
G1 X125.255 Y60.745 E18.2561
G1 X125.255 Y101.255 E18.85524
G1 X125.255 Y107.956 E19.07845
G1 X125.246 Y108.047 E19.0815
G1 X125.207 Y108.444 E19.09479
G1 X125.183 Y108.522 E19.0975
G1 X125.193 Y108.443 E19.09751
G1 X125.245 Y108.048 E19.09772
G1 X125.245 Y107.956 E19.09777
G1 X125.245 Y101.255 E19.10224
G0 F2625 X125.155 Y101.255
G0 X125.063 Y53.147
G1 F900 X124.984 Y52.957 E19.10909
G1 X125.08 Y53.139 E19.1092
G1 X125.137 Y53.327 E19.11572
G1 X125.063 Y53.147 E19.11581
G0 F2625 X124.873 Y52.75
G1 F900 X124.916 Y52.832 E19.11889
G1 X124.861 Y52.76 E19.1189
G1 X124.609 Y52.43 E19.13271
G1 X124.873 Y52.75 E19.1329
G0 F2625 X124.25 Y52.127
G1 F900 X124.57 Y52.391 E19.14672
G1 X124.24 Y52.139 E19.14694
G1 X124.168 Y52.084 E19.14996
G1 X124.25 Y52.127
G0 F2625 X123.861 Y51.92
G1 F900 X124.043 Y52.016 E19.15682
G1 X123.854 Y51.938 E19.15693
G1 X123.672 Y51.862 E19.16348
G1 X123.861 Y51.92 E19.1636
G0 F2625 X118.255 Y51.845
G0 X118.255 Y51.755
G1 F900 X118.255 Y51.967 E19.17067
G1 X97.745 Y51.968 E19.85386
G1 X97.745 Y51.755 E19.86096
G1 X64.255 Y51.755 E20.97652
G1 X64.255 Y51.967 E20.98358
G1 X43.745 Y51.968 E21.66678
G1 X43.745 Y51.755 E21.67387
G1 X39.044 Y51.755 E21.83046
G1 X38.949 Y51.755 E21.8305
G1 X38.559 Y51.806 E21.8436
G1 X38.479 Y51.817 E21.84629
G1 X38.556 Y51.793
G1 X38.949 Y51.755 E21.85553
G1 X39.044 Y51.745 E21.85557
G1 X43.745 Y51.745 E21.8587
G1 X64.255 Y51.745 E22.16272
G1 X97.745 Y51.745 E22.18503
G1 X118.255 Y51.745 E22.48905
G1 X122.956 Y51.745 E22.64564
G1 X123.047 Y51.754 E22.64869
G1 X123.444 Y51.793 E22.66198
G1 X123.522 Y51.817 E22.6647
G1 X123.443 Y51.807 E22.6647
G1 X123.048 Y51.755 E22.66492
G1 X122.956 Y51.755 E22.66497
G1 X118.255 Y51.755 E22.6681
G0 F2625 X118.255 Y51.845
G0 X123.532 Y51.389
G0 X123.539 Y51.305
;TYPE:WALL-OUTER
G1 F900 X124.052 Y51.46 E22.68595
G1 X124.526 Y51.713 E22.70385
G1 X124.943 Y52.057 E22.72185
G1 X125.287 Y52.474 E22.73986
G1 X125.54 Y52.948 E22.75776
G1 X125.695 Y53.461 E22.77561
G1 X125.75 Y54.015 E22.79415
G1 X125.75 Y107.985 E24.59191
G1 X125.695 Y108.539 E24.61046
G1 X125.54 Y109.052 E24.62831
G1 X125.287 Y109.526 E24.64621
G1 X124.943 Y109.943 E24.66421
G1 X124.526 Y110.287 E24.68222
G1 X124.052 Y110.54 E24.70012
G1 X123.539 Y110.695 E24.71797
G1 X122.985 Y110.75 E24.73651
G1 X39.015 Y110.75 E27.53359
G1 X38.461 Y110.695 E27.55213
G1 X37.948 Y110.54 E27.56998
G1 X37.474 Y110.287 E27.58788
G1 X37.057 Y109.943 E27.60589
G1 X36.713 Y109.526 E27.62389
G1 X36.46 Y109.052 E27.64179
G1 X36.305 Y108.539 E27.65964
G1 X36.25 Y107.985 E27.67819
G1 X36.251 Y54.01 E29.47611
G1 X36.307 Y53.456 E29.49466
G1 X36.462 Y52.943 E29.51251
G1 X36.713 Y52.474 E29.53023
G1 X37.057 Y52.057 E29.54824
G1 X37.474 Y51.713 E29.56624
G1 X37.948 Y51.46 E29.58414
G1 X38.461 Y51.305 E29.60199
G1 X39.015 Y51.25 E29.62054
G1 X122.985 Y51.25 E32.41761
G1 X123.539 Y51.305 E32.43615
G0 F2625 X123.778 Y51.377
G0 X123.754 Y51.457
G0 X124.714 Y53.537
G0 X125.061 Y60.232
G0 X125.061 Y101.768
G0 X124.717 Y108.458
G0 X124.536 Y108.891
G0 X124.256 Y109.256
G0 X123.891 Y109.536
G0 X123.458 Y109.717
G0 X118.768 Y110.06
G0 X43.232 Y110.061
G0 X38.542 Y109.717
G0 X38.109 Y109.536
G0 X37.744 Y109.256
G0 X37.464 Y108.891
G0 X37.283 Y108.458
G0 X36.94 Y101.768
G0 X36.939 Y60.232
G0 X37.25 Y60.16
G0 X37.25 Y60.25
M104 S205
G1 F900 X37.462 Y60.25 E32.44322
G1 X37.463 Y101.75 E33.8256
G1 X37.25 Y101.75 E33.83269
G1 X37.25 Y108.016 E34.04141
G1 X37.307 Y108.453 E34.05609
G1 X37.483 Y108.876 E34.07135
G1 X37.761 Y109.239 E34.08658
G1 X38.124 Y109.517 E34.10181
G1 X38.547 Y109.693 E34.11708
G1 X38.984 Y109.75 E34.13176
G1 X43.25 Y109.75 E34.27386
G1 X43.25 Y109.538 E34.28092
G1 X64.75 Y109.538 E34.99709
G1 X64.75 Y109.75 E35.00415
G1 X97.25 Y109.75 E36.08674
G1 X97.25 Y109.538 E36.0938
G1 X118.75 Y109.537 E36.80998
G1 X118.75 Y109.75 E36.81707
G1 X123.016 Y109.75 E36.95917
G1 X123.453 Y109.693 E36.97385
G1 X123.876 Y109.517 E36.98911
G1 X124.239 Y109.239 E37.00434
G1 X124.517 Y108.876 E37.01957
G1 X124.693 Y108.453 E37.03484
G1 X124.75 Y108.016 E37.04952
G1 X124.75 Y101.75 E37.25824
G1 X124.538 Y101.75 E37.2653
G1 X124.538 Y60.25 E38.64768
G1 X124.75 Y60.25 E38.65474
G1 X124.75 Y53.98 E38.8636
G1 X124.691 Y53.543 E38.87829
G1 X124.517 Y53.124 E38.8934
G1 X124.239 Y52.761 E38.90863
G1 X123.876 Y52.483 E38.92386
G1 X123.453 Y52.307 E38.93912
G1 X123.016 Y52.25 E38.9538
G1 X118.75 Y52.25 E39.0959
G1 X118.75 Y52.462 E39.10296
G1 X97.25 Y52.463 E39.81914
G1 X97.25 Y52.25 E39.82623
G1 X64.75 Y52.25 E40.90882
G1 X64.75 Y52.462 E40.91588
G1 X43.25 Y52.463 E41.63205
G1 X43.25 Y52.25 E41.63915
G1 X38.981 Y52.25 E41.78135
G1 X38.547 Y52.307 E41.79593
G1 X38.124 Y52.483 E41.81119
G1 X37.761 Y52.761 E41.82642
G1 X37.483 Y53.124 E41.84165
G1 X37.307 Y53.547 E41.85691
G1 X37.25 Y53.984 E41.87159
G1 X37.25 Y60.25 E42.08032
G0 F2625 X37.462 Y60.25
G0 X37.462 Y60.288
G0 X36.765 Y59.907
;MESH:NONMESH
G0 X36.94 Y101.768
G0 X37.283 Y108.458
G0 X37.464 Y108.891
G0 X37.744 Y109.256
G0 X38.109 Y109.536
G0 X38.542 Y109.717
G0 X43.232 Y110.061
G0 X118.768 Y110.06
G0 X123.458 Y109.717
G0 X123.891 Y109.536
G0 X124.256 Y109.256
G0 X124.536 Y108.891
G0 X124.717 Y108.458
G0 X125.061 Y101.768
G0 X125.061 Y60.232
G0 X124.714 Y53.537
G0 X124.536 Y53.109
G0 X124.256 Y52.744
G0 X123.891 Y52.464
G0 X123.458 Y52.283
G0 X118.768 Y51.939
G0 X43.232 Y51.94
G0 X37.76 Y52.139
;TIME_ELAPSED:120.659424
;LAYER:1
M140 S60
M221 S100 T0
M106 S255
;MESH:
G0 F6562.5 X37.76 Y52.139 Z0.675
;TYPE:WALL-INNER
G1 F1350 X37.43 Y52.391 E42.08845
G1 X37.75 Y52.127 E42.08857
G1 X37.832 Y52.084 E42.09037
G1 X37.76 Y52.139 E42.09037
G0 F6562.5 X38.146 Y51.937
G1 F1350 X37.957 Y52.016 E42.09439
G1 X38.139 Y51.92 E42.09446
G1 X38.328 Y51.862 E42.09597
G1 X38.146 Y51.937 E42.09602
G0 F6562.5 X37.138 Y52.761
G1 F1350 X37.081 Y52.835 E42.09785
G1 X37.125 Y52.752 E42.09787
G1 X37.391 Y52.43 E42.10605
G1 X37.138 Y52.761 E42.10616
G0 F6562.5 X36.943 Y53.135
G1 F1350 X36.865 Y53.322 E42.11013
G1 X36.924 Y53.128 E42.1102
G1 X37.02 Y52.948 E42.11419
G1 X36.943 Y53.135 E42.11426
G0 F6562.5 X36.845 Y60.745
G0 X36.755 Y60.745
G1 F1350 X37.305 Y60.745 E42.12504
G1 X37.306 Y101.005 E42.9139
G1 X37.306 Y101.255 E42.9188
G1 X37.056 Y101.255 E42.92197
G1 X36.755 Y101.255 E42.92787
G1 X36.755 Y107.956 E43.05917
G1 X36.755 Y108.048 E43.05919
G1 X36.806 Y108.441 E43.06696
G1 X36.817 Y108.522 E43.06856
G1 X36.793 Y108.444
G1 X36.755 Y108.048 E43.07405
G1 X36.745 Y107.956 E43.07407
G1 X36.745 Y101.255 E43.07669
G1 X36.745 Y60.745 E43.87046
G1 X36.746 Y54.024 E44.00215
G1 X36.753 Y53.953 E44.00355
G1 X36.796 Y53.547 E44.01155
G1 X36.817 Y53.479 E44.01294
G1 X36.808 Y53.548
G1 X36.755 Y53.952 E44.01306
G1 X36.755 Y54.024 E44.01308
G1 X36.755 Y60.745 E44.01558
G0 F6562.5 X36.845 Y60.745
G0 X36.937 Y108.854
G1 F1350 X37.016 Y109.043 E44.0196
G1 X36.92 Y108.861 E44.01967
G1 X36.862 Y108.672 E44.02118
G1 X36.937 Y108.854 E44.02123
G0 F6562.5 X37.139 Y109.24
G1 F1350 X37.384 Y109.561 E44.02914
G1 X37.127 Y109.25 E44.02925
G1 X37.084 Y109.168 E44.03105
G1 X37.139 Y109.24 E44.03105
G0 F6562.5 X37.76 Y109.861
G1 F1350 X37.832 Y109.916 E44.03283
G1 X37.75 Y109.873 E44.03288
G1 X37.43 Y109.609 E44.04101
G1 X37.76 Y109.861 E44.04114
G0 F6562.5 X38.146 Y110.062
G1 F1350 X38.328 Y110.138 E44.045
G1 X38.139 Y110.08 E44.04508
G1 X37.957 Y109.984 E44.0491
G1 X38.146 Y110.062 E44.04916
